app/client/src/assets/icons/blueprintjs/16px/issue-closed.svg

<?xml version="1.0" encoding="UTF-8"?>
<svg width="16px" height="16px" viewBox="0 0 16 16" version="1.1" xmlns="http://www.w3.org/2000/svg" xmlns:xlink="http://www.w3.org/1999/xlink">
    <!-- Generator: Sketch 45.2 (43514) - http://www.bohemiancoding.com/sketch -->
    <title>pt-icon-issue-closed</title>
    <desc>Created with Sketch.</desc>
    <defs></defs>
    <g id="Page-1" stroke="none" stroke-width="1" fill="none" fill-rule="evenodd">
        <g id="pt-icon-issue-closed" fill="#10161A">
            <path d="M9.29601355,0.104441125 C8.93086087,0.25087346 8.5886781,0.47198207 8.29289322,0.767766953 C7.93146597,1.1291942 7.68153811,1.55989828 7.54310963,2.01713574 C4.44285004,2.25057196 2,4.84000688 2,8 C2,11.3137085 4.6862915,14 8,14 C11.3137085,14 14,11.3137085 14,8 C14,7.49817837 13.938394,7.01074559 13.8223324,6.54485216 C13.8657935,6.50616508 13.9082871,6.4660816 13.9497475,6.4246212 L15.4057161,4.96865259 C15.7888033,5.90356993 16,6.92712114 16,8 C16,12.418278 12.418278,16 8,16 C3.581722,16 0,12.418278 0,8 C0,3.581722 3.581722,0 8,0 C8.44126013,0 8.87417618,0.0357252412 9.29601355,0.104441125 Z M11.8284271,5.30330086 C11.5725048,5.30330086 11.3165825,5.20566979 11.1213203,5.01040764 L9.70710678,3.59619408 C9.31658249,3.20566979 9.31658249,2.57250481 9.70710678,2.18198052 C10.0976311,1.79145622 10.7307961,1.79145622 11.1213203,2.18198052 L11.8284271,2.8890873 L13.5961941,1.12132034 C13.9867184,0.730796052 14.6198833,0.730796052 15.0104076,1.12132034 C15.4009319,1.51184464 15.4009319,2.14500961 15.0104076,2.53553391 L12.5355339,5.01040764 C12.3402718,5.20566979 12.0843494,5.30330086 11.8284271,5.30330086 Z M9,12 L7,12 L7,10 L9,10 L9,12 Z M9,9 L7,9 L7,4 L9,4 L9,9 Z" id="pt-icon-issue-closed-16"></path>
        </g>
    </g>
</svg>

<svg xmlns="http://www.w3.org/2000/svg" width="16" height="16"><path fill-rule="evenodd" d="M9.296.104a2.99 2.99 0 0 0-1.003.664 2.987 2.987 0 0 0-.75 1.25 6 6 0 1 0 6.28 4.527c.043-.039.085-.079.127-.12l1.456-1.456A8 8 0 1 1 9.296.105Zm2.532 5.2a.997.997 0 0 1-.707-.294L9.707 3.596a1 1 0 0 1 1.414-1.414l.707.707 1.768-1.768a1 1 0 1 1 1.414 1.415L12.536 5.01a.997.997 0 0 1-.708.293ZM9 12H7v-2h2v2Zm0-3H7V4h2v5Z"/></svg>
